packages/icons/src/SVG/stackoverflow.svg

<svg width="12" height="12" viewBox="0 0 12 12" fill="none" xmlns="http://www.w3.org/2000/svg">
<path d="M10.4531 3.81849L5.825 0L5.18858 0.771347L9.81667 4.58983L10.4531 3.81849Z" fill="#4C505B"/>
<path d="M1 11V7H2V10H10V7H11V11H1Z" fill="#4C505B"/>
<path d="M3 8H9V9H3V8Z" fill="#4C505B"/>
<path d="M3.17023 5.5L9.08008 6.53615L8.98994 7.52112L3.08008 6.48498L3.17023 5.5Z" fill="#4C505B"/>
<path d="M9.60069 4.9687L4.01909 2.76739L3.59473 3.71422L9.17633 5.91553L9.60069 4.9687Z" fill="#4C505B"/>
</svg>

<!-- Generated by IcoMoon.io -->
<svg version="1.1" xmlns="http://www.w3.org/2000/svg" width="12" height="12" viewBox="0 0 12 12">
<title>stackoverflow</title>
<path d="M10.453 3.818l-4.628-3.818-0.636 0.771 4.628 3.818 0.636-0.771z"></path>
<path d="M1 11v-4h1v3h8v-3h1v4h-10z"></path>
<path d="M3 8h6v1h-6v-1z"></path>
<path d="M3.17 5.5l5.91 1.036-0.090 0.985-5.91-1.036 0.090-0.985z"></path>
<path d="M9.601 4.969l-5.582-2.201-0.424 0.947 5.582 2.201 0.424-0.947z"></path>
</svg>
